X:50
T:Boys of Bluehill, The
M:4/4
E:9
Z:Often followed by Harvest Home as a medley
R:hornpipe
K:D
FA|BAFA D2FA|BA (3Bcd e2de|faaf egfe|dfed B2dA|*
BAFA DAFA|BA (3Bcd e2de| faaf egfe|d2 d2 d2:|*
fg|afdf a2gf|efga b2ag|faafegfe|dfed B2dA|*
BAFA D2FA|BA (3Bcd e2de| faaf egfe|d2 d2 d2:|**
\break
